src/assets/svg/icons/fa/nuevos/classic/duotone/sheep classic duotone.svg

<svg xmlns="http://www.w3.org/2000/svg" viewBox="0 0 640 512"><!--! Font Awesome Pro 6.4.0 by @fontawesome - https://fontawesome.com License - https://fontawesome.com/license (Commercial License) Copyright 2023 Fonticons, Inc. --><defs><style>.fa-secondary{opacity:.4}</style></defs><path class="fa-primary" d="M384 135.8l-14.5 6.2c-12.2 5.2-26.3-.4-31.5-12.6s.4-26.3 12.6-31.5l47.8-20.5C415.3 50.2 445.5 32 480 32s64.7 18.2 81.6 45.4l47.8 20.5c12.2 5.2 17.8 19.3 12.6 31.5s-19.3 17.8-31.5 12.6L576 135.8V208c0 44.2-35.8 80-80 80H464c-44.2 0-80-35.8-80-80V135.8zM464 160a16 16 0 1 0 0-32 16 16 0 1 0 0 32zm80-16a16 16 0 1 0 -32 0 16 16 0 1 0 32 0zM115.1 485.9L97.5 392c2.8-.1 5.6-.3 8.3-.7c6.8 28 32.1 48.7 62.2 48.7c15 0 28.9-5.2 39.8-13.9l.2 .2V480c0 17.7-14.3 32-32 32H146.6c-15.4 0-28.6-11-31.5-26.1zM304 480V426.3l.2-.2C315.1 434.8 329 440 344 440c30.1 0 55.3-20.8 62.2-48.7c2.7 .4 5.5 .7 8.3 .7l-17.6 93.9C394.1 501 380.8 512 365.4 512H336c-17.7 0-32-14.3-32-32z"/><path class="fa-secondary" d="M308.5 142.1c8 18.6 24.8 30.7 43.5 33.4V208c0 61.9 50.1 112 112 112h15.5c.3 2.6 .5 5.3 .5 8c0 35.3-28.7 64-64 64c-3.3 0-6.6-.3-9.8-.7c-6.8 28-32.1 48.7-62.2 48.7c-15 0-28.9-5.2-39.8-13.9c-11.7 13.4-29 21.9-48.2 21.9s-36.5-8.5-48.2-21.9C196.9 434.8 183 440 168 440c-30.1 0-55.3-20.8-62.2-48.7c-3.2 .5-6.5 .7-9.8 .7c-35.3 0-64-28.7-64-64c0-5.3 .7-10.5 1.9-15.5C13.7 301.7 0 280.5 0 256s13.7-45.7 33.9-56.5c-1.2-5-1.9-10.2-1.9-15.5c0-35.3 28.7-64 64-64c3.3 0 6.6 .3 9.8 .8C112.7 92.8 137.9 72 168 72c15 0 28.9 5.2 39.8 13.9C219.5 72.5 236.8 64 256 64c22.9 0 43 12 54.3 30.1c-7.5 14.4-8.7 31.9-1.8 47.9z"/></svg>

<svg xmlns="http://www.w3.org/2000/svg" viewBox="0 0 640 512"><defs><style>.fa-secondary{opacity:.4}</style></defs><path class="fa-primary" d="M384 135.8L369.5 142.1C357.3 147.3 343.2 141.6 337.9 129.5C332.7 117.3 338.4 103.2 350.5 97.94L398.4 77.44C415.3 50.16 445.5 32 480 32C514.5 32 544.7 50.16 561.6 77.44L609.5 97.94C621.6 103.2 627.3 117.3 622.1 129.5C616.8 141.6 602.7 147.3 590.5 142.1L576 135.8V208C576 252.2 540.2 288 496 288H464C419.8 288 384 252.2 384 208L384 135.8zM464 160C472.8 160 480 152.8 480 144C480 135.2 472.8 128 464 128C455.2 128 448 135.2 448 144C448 152.8 455.2 160 464 160zM528 128C519.2 128 512 135.2 512 144C512 152.8 519.2 160 528 160C536.8 160 544 152.8 544 144C544 135.2 536.8 128 528 128zM115.1 485.9L97.5 391.1C100.3 391.9 103.1 391.7 105.8 391.3C112.7 419.2 137.9 440 167.1 440C183 440 196.9 434.8 207.8 426.1L207.1 426.3V480C207.1 497.7 193.7 512 175.1 512H146.6C131.2 512 117.9 501 115.1 485.9V485.9zM303.1 480V426.3L304.2 426.1C315.1 434.8 328.1 440 344 440C374.1 440 399.3 419.2 406.2 391.3C408.9 391.7 411.7 391.9 414.5 391.1L396.9 485.9C394.1 501 380.8 512 365.4 512H336C318.3 512 303.1 497.7 303.1 480V480z"/><path class="fa-secondary" d="M308.5 142.1C316.5 160.7 333.3 172.7 352 175.4V208C352 269.9 402.1 320 464 320H479.5C479.8 322.6 480 325.3 480 328C480 363.3 451.3 392 416 392C412.7 392 409.4 391.7 406.2 391.3C399.3 419.2 374.1 440 344 440C328.1 440 315.1 434.8 304.2 426.1C292.5 439.5 275.2 448 256 448C236.8 448 219.5 439.5 207.8 426.1C196.9 434.8 183 440 168 440C137.9 440 112.7 419.2 105.8 391.3C102.6 391.7 99.34 392 96 392C60.65 392 32 363.3 32 328C32 322.7 32.66 317.5 33.89 312.5C13.72 301.7 0 280.5 0 256C0 231.5 13.72 210.3 33.89 199.5C32.66 194.5 32 189.3 32 184C32 148.7 60.65 120 96 120C99.34 120 102.6 120.3 105.8 120.8C112.7 92.77 137.9 72 168 72C183 72 196.9 77.19 207.8 85.88C219.5 72.47 236.8 64 256 64C278.9 64 299 76.04 310.3 94.15C302.9 108.5 301.6 126 308.5 142.1V142.1z"/></svg>
